dist/images/icons/round-arrow-right.svg

<svg width="44" height="44" viewBox="0 0 44 44" fill="none" xmlns="http://www.w3.org/2000/svg">
<circle cx="22" cy="22" r="21" fill="#EEB33B" stroke="#EEB33B" stroke-width="2"/>
<mask id="path-2-inside-1" fill="white">
<path d="M12.8333 21.5501H29.4579L23.0921 14.638C22.7587 14.2761 22.7458 13.6747 23.0633 13.2947C23.3804 12.9152 23.9079 12.9 24.2417 13.262L31.5117 21.1564C31.8263 21.5155 32 21.9923 32 22.5001C32 23.0074 31.8263 23.4848 31.4971 23.8595L24.2413 31.7378C24.08 31.9131 23.8733 32 23.6667 32C23.4467 32 23.2267 31.9012 23.0629 31.705C22.7454 31.325 22.7583 30.7242 23.0917 30.3622L29.4842 23.4501H12.8333C12.3733 23.4501 12 23.0245 12 22.5001C12 21.9757 12.3733 21.5501 12.8333 21.5501Z"/>
</mask>
<path d="M12.8333 21.5501H29.4579L23.0921 14.638C22.7587 14.2761 22.7458 13.6747 23.0633 13.2947C23.3804 12.9152 23.9079 12.9 24.2417 13.262L31.5117 21.1564C31.8263 21.5155 32 21.9923 32 22.5001C32 23.0074 31.8263 23.4848 31.4971 23.8595L24.2413 31.7378C24.08 31.9131 23.8733 32 23.6667 32C23.4467 32 23.2267 31.9012 23.0629 31.705C22.7454 31.325 22.7583 30.7242 23.0917 30.3622L29.4842 23.4501H12.8333C12.3733 23.4501 12 23.0245 12 22.5001C12 21.9757 12.3733 21.5501 12.8333 21.5501Z" fill="#CDCDCD"/>
<path d="M29.4579 21.5501L35.3425 16.1306L47.7015 29.5501H29.4579V21.5501ZM23.0921 14.638L17.2075 20.0575L17.2074 20.0575L23.0921 14.638ZM23.0633 13.2947L29.2026 18.424L29.2024 18.4242L23.0633 13.2947ZM24.2417 13.262L30.123 7.83881L30.1265 7.84262L24.2417 13.262ZM31.5117 21.1564L37.3965 15.737L37.4637 15.8101L37.5292 15.8848L31.5117 21.1564ZM31.4971 23.8595L37.5078 29.1389L37.4455 29.2098L37.3816 29.2792L31.4971 23.8595ZM24.2413 31.7378L18.3538 26.3214L18.3567 26.3182L24.2413 31.7378ZM23.0629 31.705L29.202 26.5756L29.2045 26.5785L23.0629 31.705ZM23.0917 30.3622L17.207 24.9427L17.2127 24.9366L17.2184 24.9304L23.0917 30.3622ZM29.4842 23.4501V15.4501H47.7795L35.3575 28.8819L29.4842 23.4501ZM12.8333 13.5501H29.4579V29.5501H12.8333V13.5501ZM23.5733 26.9697L17.2075 20.0575L28.9767 9.21848L35.3425 16.1306L23.5733 26.9697ZM17.2074 20.0575C14.1277 16.7135 14.0563 11.5977 16.9242 8.16528L29.2024 18.4242C30.4092 16.9799 30.8636 15.2873 30.8318 13.8018C30.8 12.3172 30.2726 10.6256 28.9767 9.21854L17.2074 20.0575ZM16.9241 8.16546C20.2997 4.12518 26.4749 3.8826 30.123 7.83882L18.3604 18.6851C19.7058 20.1441 21.6921 21.0584 23.8712 20.9971C26.0447 20.936 27.9539 19.9185 29.2026 18.424L16.9241 8.16546ZM30.1265 7.84262L37.3965 15.737L25.6269 26.5757L18.3569 18.6813L30.1265 7.84262ZM37.5292 15.8848C39.2026 17.795 40 20.1793 40 22.5001H24C24 23.8054 24.4499 25.2359 25.4942 26.4279L37.5292 15.8848ZM40 22.5001C40 24.8653 39.1742 27.2416 37.5078 29.1389L25.4864 18.5802C24.4783 19.7279 24 21.1495 24 22.5001H40ZM37.3816 29.2792L30.1258 37.1574L18.3567 26.3182L25.6126 18.4399L37.3816 29.2792ZM30.1287 37.1542C28.5061 38.918 26.1885 40 23.6667 40V24C21.5581 24 19.6539 24.9082 18.3538 26.3214L30.1287 37.1542ZM23.6667 40C20.978 40 18.542 38.773 16.9213 36.8315L29.2045 26.5785C27.9114 25.0294 25.9154 24 23.6667 24V40ZM16.9238 36.8345C14.0558 33.402 14.1274 28.2867 17.207 24.9427L28.9763 35.7817C31.3892 33.1617 31.435 29.2481 29.202 26.5756L16.9238 36.8345ZM17.2184 24.9304L23.6109 18.0183L35.3575 28.8819L28.965 35.794L17.2184 24.9304ZM29.4842 31.4501H12.8333V15.4501H29.4842V31.4501ZM12.8333 31.4501C7.00256 31.4501 4 26.4259 4 22.5001H20C20 19.6231 17.7441 15.4501 12.8333 15.4501V31.4501ZM4 22.5001C4 18.5743 7.00256 13.5501 12.8333 13.5501V29.5501C17.7441 29.5501 20 25.3772 20 22.5001H4Z" fill="white" mask="url(#path-2-inside-1)"/>
</svg>

<svg width="44" height="44" viewBox="0 0 44 44" fill="none" xmlns="http://www.w3.org/2000/svg"><circle cx="22" cy="22" r="21" fill="#EEB33B" stroke="#EEB33B" stroke-width="2"/><mask id="path-2-inside-1" fill="#fff"><path d="M12.833 21.55h16.625l-6.366-6.912a1.046 1.046 0 01-.029-1.343.764.764 0 011.179-.033l7.27 7.894c.314.36.488.836.488 1.344 0 .507-.174.985-.503 1.36l-7.256 7.878a.778.778 0 01-.574.262.786.786 0 01-.604-.295c-.318-.38-.305-.98.029-1.343l6.392-6.912h-16.65c-.46 0-.834-.425-.834-.95 0-.524.373-.95.833-.95z"/></mask><path d="M12.833 21.55h16.625l-6.366-6.912a1.046 1.046 0 01-.029-1.343.764.764 0 011.179-.033l7.27 7.894c.314.36.488.836.488 1.344 0 .507-.174.985-.503 1.36l-7.256 7.878a.778.778 0 01-.574.262.786.786 0 01-.604-.295c-.318-.38-.305-.98.029-1.343l6.392-6.912h-16.65c-.46 0-.834-.425-.834-.95 0-.524.373-.95.833-.95z" fill="#CDCDCD"/><path d="M29.458 21.55l5.885-5.42L47.7 29.55H29.459v-8zm-6.366-6.912l-5.884 5.42 5.884-5.42zm-.029-1.343l6.14 5.129-6.14-5.13zm1.179-.033l5.881-5.423.003.004-5.884 5.419zm7.27 7.894l5.885-5.419.067.073.065.075-6.017 5.271zm-.015 2.704l6.01 5.279-.061.07-.064.07-5.885-5.42zm-7.256 7.878l-5.887-5.417.003-.003 5.884 5.42zm-1.178-.033l6.139-5.13.002.003-6.141 5.127zm.029-1.343l-5.885-5.42.006-.005.005-.007 5.874 5.432zm6.392-6.912v-8H47.78L35.358 28.882l-5.873-5.432zm-16.65-9.9h16.624v16H12.833v-16zm10.74 13.42l-6.367-6.912 11.77-10.84 6.366 6.913-11.77 10.839zm-6.367-6.912c-3.08-3.345-3.15-8.46-.283-11.893l12.278 10.26a6.976 6.976 0 001.63-4.623 6.988 6.988 0 00-1.855-4.583l-11.77 10.839zm-.283-11.893c3.376-4.04 9.55-4.282 13.199-.326L18.36 18.685a7.224 7.224 0 005.511 2.312 7.213 7.213 0 005.332-2.573L16.924 8.165zm13.203-.322l7.27 7.894-11.77 10.839-7.27-7.895 11.77-10.838zm7.402 8.042A10.03 10.03 0 0140 22.5H24a5.97 5.97 0 001.494 3.928L37.53 15.885zM40 22.5a10.04 10.04 0 01-2.492 6.639L25.486 18.58A5.96 5.96 0 0024 22.5h16zm-2.618 6.78l-7.256 7.877-11.77-10.839 7.257-7.878 11.769 10.84zm-7.253 7.874A8.777 8.777 0 0123.667 40V24a7.223 7.223 0 00-5.313 2.321l11.775 10.833zM23.667 40a8.785 8.785 0 01-6.746-3.169l12.284-10.253A7.216 7.216 0 0023.666 24v16zm-6.743-3.166c-2.868-3.432-2.797-8.547.283-11.891l11.77 10.839a6.956 6.956 0 00.225-9.206L16.924 36.834zm.294-11.904l6.393-6.912 11.747 10.864-6.393 6.912L17.218 24.93zm12.266 6.52h-16.65v-16h16.65v16zm-16.65 0C7.002 31.45 4 26.426 4 22.5h16c0-2.877-2.256-7.05-7.167-7.05v16zM4 22.5c0-3.926 3.003-8.95 8.833-8.95v16c4.911 0 7.167-4.173 7.167-7.05H4z" fill="#fff" mask="url(#path-2-inside-1)"/></svg>
